64x64/apps/lutris_x3-terran-conflict.svg

<svg height="64" width="64" xmlns="http://www.w3.org/2000/svg"><path d="m13 12h17l5 8 7-8h18l-18 21 12 21h-19l-5-8-6 8h-20l19-22z" opacity=".2"/><path d="m13 11h17l5 8 7-8h18l-18 21 12 21h-19l-5-8-6 8h-20l19-22z" fill="#31bd5c"/><path d="m13 11 .5 1h16.5l5 8 7-8h17.143l.857-1h-18l-7 8-5-8zm9.684 20.367-18.684 21.633h.863l18.137-21zm19.66 1.233-.344.4 11.428 20h.572z" fill="#f4f4f7" opacity=".2"/><circle cx="47" cy="48" opacity=".2" r="15"/><circle cx="47" cy="47" fill="#42a1cd" r="15"/><path d="m47 40s-.945-.02-1.93.498c-.948.498-1.98 1.744-2.056 3.502h2.677c.13-1.185 1.309-1.2 1.309-1.2s1.334 0 1.334 1.4c0 .738-.187 1.152-.543 1.618-.045.06-.117.122-.17.182h-2.621v2h2.621c.053.06.125.122.17.182.356.466.543.88.543 1.619 0 1.4-1.334 1.398-1.334 1.398s-1.18-.014-1.309-1.199h-2.677c.075 1.758 1.108 3.004 2.056 3.502.985.517 1.93.498 1.93.498s.945.019 1.93-.498c.984-.517 2.07-1.835 2.07-3.701a5.55 5.55 0 0 0 -.758-2.801 5.55 5.55 0 0 0 .758-2.8c0-1.867-1.086-3.185-2.07-3.702-.985-.517-1.93-.498-1.93-.498z" fill="#f4f4f7" fill-rule="evenodd"/></svg>

<svg width="64" height="64" xmlns="http://www.w3.org/2000/svg"><path d="M13 12h17l5 8 7-8h18L42 33l12 21H35l-5-8-6 8H4l19-22z" style="opacity:.2"/><path d="M13 11h17l5 8 7-8h18L42 32l12 21H35l-5-8-6 8H4l19-22z" style="fill:#31bd5c"/><path d="m13 11 .5 1H30l5 8 7-8h17.143L60 11H42l-7 8-5-8H13zm9.684 20.367L4 53h.863L23 32l-.316-.633zm19.66 1.233L42 33l11.428 20H54L42.344 32.6z" style="fill:#f4f4f7;opacity:.2"/><circle cx="47" cy="48" r="15" style="opacity:.2"/><circle cx="47" cy="47" r="15" style="fill:#42a1cd"/><path d="M47 40s-.945-.02-1.93.498c-.948.498-1.98 1.744-2.056 3.502h2.677c.13-1.185 1.309-1.2 1.309-1.2s1.334 0 1.334 1.4c0 .738-.187 1.152-.543 1.618-.045.06-.117.122-.17.182H45v2h2.621c.053.06.125.122.17.182.356.466.543.88.543 1.619 0 1.4-1.334 1.398-1.334 1.398s-1.18-.014-1.309-1.199h-2.677c.075 1.758 1.108 3.004 2.056 3.502.985.517 1.93.498 1.93.498s.945.019 1.93-.498c.984-.517 2.07-1.835 2.07-3.701A5.55 5.55 0 0 0 50.242 47 5.55 5.55 0 0 0 51 44.2c0-1.867-1.086-3.185-2.07-3.702C47.945 39.981 47 40 47 40z" style="fill-rule:evenodd;fill:#f4f4f7"/></svg>
